svgs/terabox.svg

<svg width="24" height="24" viewBox="0 0 24 24" fill="none" xmlns="http://www.w3.org/2000/svg">
<path d="M18.125 10.285C17.5583 7.26625 15.0333 5 12 5C9.59167 5 7.5 6.435 6.45833 8.535C3.95 8.815 2 11.0463 2 13.75C2 16.6462 4.24167 19 7 19H17.8333C20.1333 19 22 17.04 22 14.625C22 12.315 20.2917 10.4425 18.125 10.285ZM13.6667 14.375V19H10.3333V14.375H9C8.5604 14.375 8.33476 13.8485 8.63793 13.5302L11.6379 10.3802C11.835 10.1733 12.165 10.1733 12.3621 10.3802L15.3621 13.5302C15.6652 13.8485 15.4396 14.375 15 14.375H13.6667Z" fill="#FFF1C0"/>
</svg>

<svg xmlns="http://www.w3.org/2000/svg" viewBox="0 0 24 24"><path d="M18.125 10.285C17.558 7.266 15.033 5 12 5 9.592 5 7.5 6.435 6.458 8.535 3.95 8.815 2 11.046 2 13.75 2 16.646 4.242 19 7 19h10.833c2.3 0 4.167-1.96 4.167-4.375 0-2.31-1.708-4.182-3.875-4.34m-4.458 4.09V19h-3.334v-4.625H9a.5.5 0 0 1-.362-.845l3-3.15a.5.5 0 0 1 .724 0l3 3.15a.5.5 0 0 1-.362.845z"/></svg>
